X:802
T:(untitled)
F:https://www.vwml.org/record/Malchair/3619/p80
F:www.vwml.org/topics/historic-dance-and-tune-books/Malchair
Z:Eric Conrad Mar 2020
Z:Eric Conrad Mar 2020
M:3/4
L:1/8
K:Cm
P:A
|: g2eg!trill!f2 | ec df !trill!e2 | (g2c2)c2 :| \
P:B
|: g2eg!trill!f2 | ec df !trill!e2 | G2g2!trill!f2 | \
(ec) (df) !trill!e2 | G2c2c2 :|
 
